X: 1
T: Hop, The
M: 12/8
L: 1/8
R: slide
K: Dmaj
|: A2F DFA B2A d2e | f2b afb afd e2f | 
A2F DFA B2A d2e |1 f2b afd edB dcB :|2 f2b afd edB def ||
|: a2a afd ede fdB | efe edf edf efg | 
a2a afd ede f2e |1 dBA F2E DFA def :|2 dBA F2E DFA dcB ||
